X:46
T:Hullichan Jig
C:from the playing of Mary Motley
Q:1/4=160
I:abc2nwc
M:6/8
L:1/8
K:G
|:D|GAG BGB|ded dBG|cBc ege|dBG A2d|GAG BGB|ded B2g|fed cBA|G3G2:|
|:B/2c/2|ded Bcd|ece e2e|fgf def|gBd gfe|ded Bcd|ece gfe|ded cBA|G3G2:|
